X: 1
T:Flower of the Flock, The
R:reel
D:Bothy Band: 1975
M:C|
Z:posted by Trish O'Neil 7/97
K:G
DEGA BG~G2|cABG AGEG|DEGA ~B3e|1 dBAB ~G3E:|2 dBAB G4||
~g3e dGBG|~A3B AGEG|~g3e d2 (3Bcd|eaab agef|
~g3e dGBG|A2BG AGEG|DEGA ~B3e|dBAB G2GE||
